src/components/00-materials/images-raw/Sun.svg

<svg width="96" height="96" viewBox="0 0 96 96" fill="none" xmlns="http://www.w3.org/2000/svg">
<path d="M47.9999 68.3099C59.2168 68.3099 68.3099 59.2168 68.3099 47.9999C68.3099 36.783 59.2168 27.6899 47.9999 27.6899C36.783 27.6899 27.6899 36.783 27.6899 47.9999C27.6899 59.2168 36.783 68.3099 47.9999 68.3099Z" stroke="#00008F" stroke-width="2" stroke-linecap="round" stroke-linejoin="round"/>
<path d="M60.7 26.01L64.25 19.85M48 15.5V22.61V15.5ZM48 73.39V80.5V73.39ZM34.26 18.54L37.27 24.99L34.26 18.54ZM58.73 71.01L61.74 77.46L58.73 71.01ZM23.1 27.11L28.55 31.68L23.1 27.11ZM67.45 64.32L72.9 68.89L67.45 64.32ZM16.61 39.59L23.47 41.43L16.61 39.59ZM72.53 54.57L79.39 56.41L72.53 54.57ZM15.99 53.64L23 52.41L15.99 53.64ZM73 43.59L80.01 42.36L73 43.59ZM21.38 66.64L27.2 62.56L21.38 66.64ZM68.8 33.44L74.62 29.36L68.8 33.44ZM31.75 76.15L35.3 69.99L31.75 76.15Z" stroke="#00008F" stroke-width="2" stroke-linecap="round" stroke-linejoin="round"/>
</svg>

<svg width="96" height="96" viewBox="0 0 96 96" fill="none" xmlns="http://www.w3.org/2000/svg"><path d="M48 68.31c11.217 0 20.31-9.093 20.31-20.31 0-11.217-9.093-20.31-20.31-20.31-11.217 0-20.31 9.093-20.31 20.31 0 11.217 9.093 20.31 20.31 20.31zM60.7 26.01l3.55-6.16M48 15.5v7.11-7.11zm0 57.89v7.11-7.11zM34.26 18.54l3.01 6.45-3.01-6.45zm24.47 52.47l3.01 6.45-3.01-6.45zM23.1 27.11l5.45 4.57-5.45-4.57zm44.35 37.21l5.45 4.57-5.45-4.57zM16.61 39.59l6.86 1.84-6.86-1.84zm55.92 14.98l6.86 1.84-6.86-1.84zm-56.54-.93L23 52.41l-7.01 1.23zM73 43.59l7.01-1.23L73 43.59zM21.38 66.64l5.82-4.08-5.82 4.08zm47.42-33.2l5.82-4.08-5.82 4.08zM31.75 76.15l3.55-6.16-3.55 6.16z" stroke="#00008F" stroke-width="2" stroke-linecap="round" stroke-linejoin="round"/></svg>
